icon-themes/breeze_svg/cmd/sc_position.svg

<svg viewBox="0 0 16 11" xmlns="http://www.w3.org/2000/svg"><path d="m7 3v1h1v-1zm2 0v1h1v-1zm2 0v1h1v-1zm2 0v1h1v-1zm0 2v1h1v-1zm-10 2v1h1v-1zm10 0v1h1v-1zm-10 2v1h1v-1zm2 0v1h1v-1zm2 0v1h1v-1zm2 0v1h1v-1zm2 0v1h1v-1zm2 0v1h1v-1z" fill="#4d4d4d"/><path d="m3 1v2h-2v1h2v2h1v-2h2v-1h-2v-2z" fill="#1d99f3"/></svg>

<svg xmlns="http://www.w3.org/2000/svg" viewBox="0 0 16 11">
 <path 
     style="fill:#4d4d4d" 
     d="M 7 3 L 7 4 L 8 4 L 8 3 L 7 3 z M 9 3 L 9 4 L 10 4 L 10 3 L 9 3 z M 11 3 L 11 4 L 12 4 L 12 3 L 11 3 z M 13 3 L 13 4 L 14 4 L 14 3 L 13 3 z M 13 5 L 13 6 L 14 6 L 14 5 L 13 5 z M 3 7 L 3 8 L 4 8 L 4 7 L 3 7 z M 13 7 L 13 8 L 14 8 L 14 7 L 13 7 z M 3 9 L 3 10 L 4 10 L 4 9 L 3 9 z M 5 9 L 5 10 L 6 10 L 6 9 L 5 9 z M 7 9 L 7 10 L 8 10 L 8 9 L 7 9 z M 9 9 L 9 10 L 10 10 L 10 9 L 9 9 z M 11 9 L 11 10 L 12 10 L 12 9 L 11 9 z M 13 9 L 13 10 L 14 10 L 14 9 L 13 9 z "
     />
 <path 
     style="fill:#1d99f3" 
     d="M 3 1 L 3 3 L 1 3 L 1 4 L 3 4 L 3 6 L 4 6 L 4 4 L 6 4 L 6 3 L 4 3 L 4 1 L 3 1 z "
     />
 </svg>
